X: 1643
T: Annie MacDonald's Piano
R: jig
M: 6/8
K: Eminor
E2 e B2 e|gfe B2 e|gfe gbe|feB AFD|
E2 e c2 e|gfe B2 e|gfe fed|e3 e3:|
gfe B2 e|gfe bge|gfe B2 e|fdB AFD|
gfe B2 e|gfe bge|gfe fed|e3 e3|
gfe B2 e|gfe bge|gfe B2 e|fdB AFD|
E2 e c2 e|gfe B2 e|gfe fed|e3 e3||

